!!!OTL: 557. Studentenzaertlichkeit.
!!!ODT: 1815
!!!ARE: Europa, Mitteleuropa, Deutschland
!!!SCT: B0557
!!!TXL: @@DE
!!!YEM: Copyright 1995, estate of Helmut Schaffrath.
**kern	**text
*ICvox	*
*Ivox	*
*clefG2	*
*M4/4	*
*met(c)	*
*k[]	*
*C:	*
!LO:TX:a:t=Munter und ʒärtlich.	!
{8g	Voll
=1	=1
8.cc	Ʒärtlich-
16dd	.
8ee	-keit
8dd	will
8cc	ich
8b	der
8cc	Dir-
8a	-ne
=2	=2
(4g	ſa-
4f)	.
4.e}	-gen,
{8g	wie
=3	=3
8a	ſie
8ff	mein
8ee	gan-
8dd	-ʒes
4ee	Herʒ
4dd	ge-
=4	=4
2.cc	-rührt.
8r}	.
{8g	Sie
=5	=5
8.cc	kann
16dd	nicht
8ee	län-
8dd	-ger
8cc	mei-
8b	-nen
8cc	Blick
8a	er-
=6	=6
(4g	-tra-
4f)	.
4.e}	-gen,
{8g	gleich
=7	=7
8a	wird
8ff	von
8ee	ihr
8dd	ka-
4ee	-pi-
4dd	-iu-
=8	=8
2.cc	-liert.
8r}	.
{8cc	Ein
=9	=9
8b	Mann
8cc	wie
4.dd	ich,
8g	nimmt
8a	man-
8b	-che
=10	=10
8cc	Frei-
8dd	-heit
8ee	ſich
8dd	her-
4cc	-aus,
8r}	.
{8cc	ein
=11	=11
8b	Mann
8cc	wie
4.dd	ich,
8g	geht
8a	ſtets
8b	will-
=12	=12
8cc	-kom-
8dd	-men
8ee	ein
8dd	und
4cc	aus.
8r}	.
{8g	Als
=13	=13
8.cc	Bur-
16dd	-ſche
8ee	führ'
8dd	ich,
8cc	oh-
8b	-ne
8cc	viel
8a	ʒu
=14	=14
(4g	fra-
4f)	.
4.e}	-gen,
{8g	die
=15	=15
8a	ſchönſte
8ff	.
8ee	Dir-
8dd	-ne
4ee	mir
4dd	nach
=16	=16
2.cc	Haus.
8r}	.
==	==
!!!AGN: Studenten - Lied
!!!GTL: Studentenlieder
!!!ONB: ESAC (Essen Associative Code) Database: BOEHME
!!!AMT: simple quadruple
!!!AIN: vox
!!!EED: Helmut Schaffrath
!!!EEV: 1.0
!!Mel. ital. Urſprungs von 1815.
!!@@COMMENT:"Altes Studentenlied, ohne Mel. ſchon 1815 in Hinkels Leiʒiger Commersbuch S. 73, dann
!!in der Ausgabe von 1816. Daher Abdruck bei Fink, "Hausſchatʒ" Nr. 470. Ʒu dieſer Melodie
!!giebt's ein noch roherer Text der Studenten im 18. Jahrh. [...]"
!!@@END:
!!!URL-scan: https://archive.org/details/BoehmeVtLieder1895/page/n443/mode/2up
!!!ENC: Anna Maria Matuszewska
!!!EEV: 2024/12/07
*-	*-
